icons/linear-new-symbol-media-scale-to-original.svg

<svg xmlns="http://www.w3.org/2000/svg" width="32px" height="32px" viewBox="0 0 32 32" version="1.1">
    <title>linear-new-symbol-media-scale-to-original</title>
    <g id="linear-new-symbol-media-scale-to-original" stroke-width="1" fill-rule="evenodd">
        <path d="M11,3 C11.5522847,3 12,3.44771525 12,4 L12,11 C12,11.5522847 11.5522847,12 11,12 L4,12 C3.44771525,12 3,11.5522847 3,11 C3,10.4477153 3.44771525,10 4,10 L10,10 L10,4 C10,3.48716416 10.3860402,3.06449284 10.8833789,3.00672773 L11,3 Z M21,3 C21.5522847,3 22,3.44771525 22,4 L22,10 L28,10 C28.5128358,10 28.9355072,10.3860402 28.9932723,10.8833789 L29,11 C29,11.5522847 28.5522847,12 28,12 L21,12 C20.4477153,12 20,11.5522847 20,11 L20,4 C20,3.44771525 20.4477153,3 21,3 Z M11,20 C11.5522847,20 12,20.4477153 12,21 L12,28 C12,28.5522847 11.5522847,29 11,29 C10.4477153,29 10,28.5522847 10,28 L10,22 L4,22 C3.48716416,22 3.06449284,21.6139598 3.00672773,21.1166211 L3,21 C3,20.4477153 3.44771525,20 4,20 L11,20 Z M28,20 C28.5522847,20 29,20.4477153 29,21 C29,21.5522847 28.5522847,22 28,22 L22,22 L22,28 C22,28.5128358 21.6139598,28.9355072 21.1166211,28.9932723 L21,29 C20.4477153,29 20,28.5522847 20,28 L20,21 C20,20.4477153 20.4477153,20 21,20 L28,20 Z" id="&#24418;&#29366;" fill-rule="nonzero" />
    </g>
</svg>

<svg xmlns="http://www.w3.org/2000/svg" viewBox="0 0 32 32"><path fill="currentColor" d="M11 3a1 1 0 0 1 1 1v7a1 1 0 0 1-1 1H4a1 1 0 0 1 0-2h6V4a1 1 0 0 1 .883-.993zm10 0a1 1 0 0 1 1 1v6h6a1 1 0 0 1 .993.883L29 11a1 1 0 0 1-1 1h-7a1 1 0 0 1-1-1V4a1 1 0 0 1 1-1M11 20a1 1 0 0 1 1 1v7a1 1 0 0 1-2 0v-6H4a1 1 0 0 1-.993-.883L3 21a1 1 0 0 1 1-1zm17 0a1 1 0 0 1 0 2h-6v6a1 1 0 0 1-.883.993L21 29a1 1 0 0 1-1-1v-7a1 1 0 0 1 1-1z"/></svg>
